X: 1
T: Paddy Bartley's
M: 4/4
L: 1/8
R: reel
K: Dmaj
D2FA dAFD|EBed cA (3Bcd|D2FA dAFD|1 A,ECE FDDA,:|2  A,ECE FDDA||
|:defa gfed|(3cBA eA fAeA|d2fa gfed|1 cbag fddc:|2 cbag fd~d2||
